!!!COM: Bach, Johann Sebastian
!!!OTL: Sei Lob und Ehr' dem hoechsten Gut
!!!ONM: No. 354
!!!OCL: Erk
!!!YOE: Riemenschneider, Albert
!!!OPR: 371 Harmonized Chorales and 69 Chorale Melodies with Figured Bass
!!!OPT: Bach Chorale Harmonizations
**kern	**kern	**kern	**kern
! bass	! tenor	! alto	! soprano
*M4/4	*M4/4	*M4/4	*M4/4
*G:	*G:	*G:	*G:
4F#	8d	4a	4dd
.	8c	.	.
=1	=1	=1	=1
4G	4B	4g	4dd
4D	4A	8g	4dd
.	.	8f#	.
4GG	4B	4g	8dd
.	.	.	8ee
8AA	4A	8c	4ffn
8BB	.	8d	.
=2	=2	=2	=2
4C	8G	8.e	4ee
.	8c	.	.
.	.	16fn	.
4GG	8c	4g	4dd
.	8B	.	.
4C;	4e;	4g;	4cc;
4F#	4d	4a	4dd
=3	=3	=3	=3
4.G	8d	4g	8b
.	8c	.	8a
.	8B	4d	8g
8F#	8A	.	8a
8E	4G	8g	4b
8F#	.	8f#	.
8G	4A	4e	4cc#
8A	.	.	.
=4	=4	=4	=4
8F#	8A	8a	4dd
8D	[8d	8f#	.
4A	8d]	4g	4ee
.	8c#	.	.
4D;	4d;	4f#;	4dd;
!! Repeat from the beginning.
4F#	8d	4a	4dd
.	8cn	.	.
=1	=1	=1	=1
4G	4B	4g	4dd
4D	4A	8g	4dd
.	.	8f#	.
4GG	4B	4g	8dd
.	.	.	8ee
8AA	4A	8c	4ffn
8BB	.	8d	.
=2	=2	=2	=2
4C	8G	8.e	4ee
.	8c	.	.
.	.	16fn	.
4GG	8c	4g	4dd
.	8B	.	.
4C;	4e;	4g;	4cc;
4F#	4d	4a	4dd
=3	=3	=3	=3
4.G	8d	4g	8b
.	8c	.	8a
.	8B	4d	8g
8F#	8A	.	8a
8E	4G	8g	4b
8F#	.	8f#	.
8G	4A	4e	4cc#
8A	.	.	.
=4	=4	=4	=4
8F#	8A	8a	4dd
8D	[8d	8f#	.
4A	8d]	4g	4ee
.	8c#	.	.
4D;	4d;	4f#;	4dd;
!! Continuing.
8G	4d	4b	4dd
8A	.	.	.
=5	=5	=5	=5
8B	8d	4b	4gg
8c#	8e	.	.
4d	8f#	8a	4ff#
.	8g	8b	.
4A	8a	4cc#	4ee
.	8g	.	.
4A#	8f#	4cc#	4ff#
.	8e	.	.
=6	=6	=6	=6
8B	4d	4dd	8gg
8G	.	.	8ff#
4A	4c#	8a	4ee
.	.	8g	.
4D;	4A;	4f#;	4dd;
8G	4B	4g	4dd
8F#	.	.	.
=7	=7	=7	=7
8E	8B	4g	4gg
8D	8c	.	.
8C	4d	4g	4dd
8BB	.	.	.
8C	4c	4g	4ee
8D	.	.	.
4E	8G	4g	8b
.	8e	.	8cc
=8	=8	=8	=8
8F#	8d	8a	4dd
8G#	8b	8b	.
4A	8c	8e	4cc
.	16e	8a	.
.	16d#	.	.
4E;	4e;	4g#;	4b;
4Gn	4dn	4gn	4b
=9	=9	=9	=9
4F#	4d	4a	8a
.	.	.	8b
8E	4e	8g	4cc
8F#	.	8a	.
4G	4d	8b	4b
.	.	8g	.
4C	8c	4e	4a
.	8B	.	.
=10	=10	=10	=10
4C#	2A	4e	4e
4D	.	4d	4f#
4GG;	4B;	4d;	4g;
==	==	==	==
*-	*-	*-	*-
!!!CDT: 1685/3//-1750/7/28
!!!OCY: Deutschland
!!!AGN: chorale
!!!AST: Baroque
!!!AIN: vox
!!!YOY: 1941
!!!PPP: New York; London
!!!PPR: G. Schirmer
!!!ENC: David Huron
!!!EED: David Huron
!!!YEN: United States of America
!!!YER: 1992
!!!YEC: Copyright 1992 David Huron
!!!YEM: Rights to all derivative electronic formats reserved.
!!!YER: March 20, 1996
!!!AMT: simple quadruple
!!!EEV: 1.1
